boxicons/svg/regular/bx-sort-down.svg

<svg xmlns="http://www.w3.org/2000/svg" width="24" height="24" viewBox="0 0 24 24"><path d="m6 20 4-4H7V4H5v12H2zm5-12h9v2h-9zm0 4h7v2h-7zm0-8h11v2H11zm0 12h5v2h-5z"/></svg>

<svg xmlns="http://www.w3.org/2000/svg" width="24" height="24" viewBox="0 0 24 24"><path d="M6 20L10 16 7 16 7 4 5 4 5 16 2 16zM11 8H20V10H11zM11 12H18V14H11zM11 4H22V6H11zM11 16H16V18H11z"/></svg>
